X: 1
T: Lovely Bannion
M: 4/4
L: 1/8
R: barndance
K: Dmaj
ABAG FDDB | ABAG AddB | ABAG FGAB | =cAFA G2 FG :| 
Adde fdec | Adde f2 ec | Adde fdec | AB=cA G2 FG | 
Adde fdec | Adde f2 fg | (3agf ge fdec | AB=cA G4 |
